; generated by Slic3r 1.2.9 on 2016-09-23 at 09:35:16

; external perimeters extrusion width = 0.40mm
; perimeters extrusion width = 0.67mm
; infill extrusion width = 0.67mm
; solid infill extrusion width = 0.67mm
; top infill extrusion width = 0.67mm
; support material extrusion width = 0.40mm

M127
M104 S225 T0 ; set temperature
(**** Start.gcode for Replicator 2 ****)
M103 ;disable RPM
M73 P0 ;enable build progress
G21 ;set units to mm
G90 ;set positioning to absolute
(**** begin homing ****)
G162 X Y F2500 ;home XY axes maximum
G161 Z F1100 ;home Z axis minimum
G92 Z-5 ;set Z to -5
G1 Z0.0 ;move Z to "0"
G161 Z F100 ;home Z axis minimum
M132 X Y Z A B ;Recall stored home offsets for XYZAB axis
(**** end homing ****)
G1 X-141 Y-74 Z75 F3300.0 ;move to waiting position
G130 X20 Y20 Z20 A20 B20 ;Lower stepper Vrefs while heating
M6 T0 ;wait for toolhead, and HBP to reach temperature
M70 P5 (We Be Making Things!)
G130 X127 Y127 Z40 A127 B127 ;Set Stepper motor Vref to defaults
M108 R3.0 T0
G0 X-141 Y-74 ;Position Nozzle
G0 Z1 ;Move above plate
G1 Z0.3 ;Position Height
M108 R5.0 ;Set Extruder Speed
M101 ;Start Extruder
G4 P3000 ;Create Anchor
G1 X-137 Y-70 Z0.1 F1000.0 ;Slow wipe
G0 Z0.3 ;and lift
(**** end of Start.gcode ****)
M73 P0
G1 Z0.300 F9000.000
(**** New Layer ****)
G1 E-4.00000 F1800.00000
M103 ; extruder off
G1 X-11.146 Y-1.919 F9000.000
M101 ; extruder on
G1 E0.00000 F1800.00000
G1 X-9.576 Y-11.040 E0.61833 F4320.000
G1 X-8.929 Y-13.009 E0.75678
G1 X-7.585 Y-15.689 E0.95708
G1 X-6.183 Y-17.600 E1.11541
G1 X-4.228 Y-18.941 E1.27374
G1 X-1.263 Y-19.592 E1.47655
G1 X2.331 Y-19.592 E1.71670
M101 ; extruder on
G1 X4.668 Y-19.195 E1.87503 F4320.000
G1 X6.742 Y-18.048 E2.03336
G1 X8.320 Y-16.280 E2.19169
G1 X9.312 Y-13.647 E2.37967
G1 X12.081 Y3.517 E3.54113
G1 X12.170 Y4.110 E3.58121
G1 X12.238 Y4.801 E3.62757
G1 X12.263 Y5.310 E3.66166
G1 X12.263 Y6.004 E3.70802
G1 X12.238 Y6.514 E3.74211
G1 X12.170 Y7.205 E3.78847
G1 X12.095 Y7.709 E3.82256
G1 X11.959 Y8.390 E3.86892
G1 X11.835 Y8.885 E3.90301
G1 X11.634 Y9.549 E3.94937
G1 X11.462 Y10.030 E3.98346
G1 X11.196 Y10.671 E4.02982
G1 X10.978 Y11.132 E4.06391
G1 X10.651 Y11.744 E4.11027
G1 X10.389 Y12.182 E4.14436
G1 X10.003 Y12.759 E4.19072
G1 X9.699 Y13.169 E4.22481
G1 X9.259 Y13.705 E4.27116
G1 X8.916 Y14.083 E4.30526
G1 X8.426 Y14.574 E4.35162
G1 X8.048 Y14.916 E4.38571
G1 X7.511 Y15.357 E4.43207
G1 X7.101 Y15.661 E4.46616
G1 X6.525 Y16.046 E4.51249
G1 X6.087 Y16.309 E4.54661
G1 X5.475 Y16.636 E4.59297
G1 X5.013 Y16.854 E4.62706
G1 X4.372 Y17.119 E4.67342
G1 X3.892 Y17.291 E4.70751
G1 X3.228 Y17.493 E4.75387
G1 X2.733 Y17.617 E4.78796
G1 X2.052 Y17.752 E4.83432
G1 X1.547 Y17.827 E4.86841
G1 X0.857 Y17.895 E4.91477
G1 X0.347 Y17.920 E4.94886
G1 X-0.347 Y17.920 E4.99522
G1 X-0.857 Y17.895 E5.02931
G1 X-1.547 Y17.827 E5.07567
G1 X-2.052 Y17.752 E5.10976
G1 X-2.733 Y17.617 E5.15612
G1 X-3.228 Y17.493 E5.19021
G1 X-3.892 Y17.291 E5.23657
G1 X-4.372 Y17.119 E5.27066
G1 X-5.013 Y16.854 E5.31702
G1 X-5.475 Y16.636 E5.35111
G1 X-6.087 Y16.309 E5.39747
G1 X-6.524 Y16.046 E5.43156
G1 X-7.101 Y15.661 E5.47792
G1 X-7.511 Y15.357 E5.51201
G1 X-8.047 Y14.917 E5.55835
G1 X-8.426 Y14.574 E5.59246
G1 X-8.916 Y14.083 E5.63882
G1 X-9.259 Y13.705 E5.67291
G1 X-9.699 Y13.169 E5.71927
G1 X-10.003 Y12.759 E5.75336
G1 X-10.388 Y12.182 E5.79966
G1 X-10.651 Y11.744 E5.83381
G1 X-10.978 Y11.132 E5.88017
G1 X-11.196 Y10.671 E5.91426
G1 X-11.462 Y10.030 E5.96062
G1 X-11.634 Y9.549 E5.99471
G1 X-11.835 Y8.885 E6.04107
G1 X-11.959 Y8.390 E6.07516
G1 X-12.096 Y7.704 E6.12190
G1 X-12.170 Y7.205 E6.15561
G1 X-12.238 Y6.514 E6.20197
G1 X-12.263 Y6.004 E6.23606
G1 X-12.263 Y5.312 E6.28231
G1 X-12.238 Y4.801 E6.31651
G1 X-12.170 Y4.112 E6.36277
G1 X-12.069 Y3.443 E6.40792
G1 X-11.156 Y-1.860 E6.76739
G1 X-10.628 Y-1.769 F9000.000
M101 ; extruder on
G1 X-9.048 Y-10.949 E7.38973 F4320.000
G1 X-8.450 Y-12.769 E7.51769
G1 X-7.106 Y-15.449 E7.71799
G1 X-5.746 Y-17.277 E7.87016
G1 X-3.842 Y-18.526 E8.02233
G1 X-1.263 Y-19.057 E8.19819
G1 X-0.065 Y-19.057 E8.27824
M101 ; extruder on
G1 X2.331 Y-19.057 E8.43834 F4320.000
G1 X4.574 Y-18.660 E8.59051
G1 X6.545 Y-17.517 E8.74269
G1 X8.004 Y-15.768 E8.89486
G1 X8.784 Y-13.562 E9.05116
G1 X11.552 Y3.602 E10.21262
G1 X11.640 Y4.189 E10.25224
G1 X11.703 Y4.827 E10.29509
G1 X11.728 Y5.337 E10.32918
G1 X11.728 Y5.978 E10.37203
G1 X11.703 Y6.488 E10.40612
G1 X11.640 Y7.126 E10.44897
G1 X11.565 Y7.631 E10.48306
G1 X11.440 Y8.260 E10.52591
G1 X11.316 Y8.755 E10.56000
G1 X11.130 Y9.369 E10.60285
G1 X10.958 Y9.849 E10.63694
G1 X10.712 Y10.442 E10.67978
G1 X10.494 Y10.903 E10.71387
G1 X10.192 Y11.469 E10.75672
G1 X9.929 Y11.906 E10.79081
G1 X9.573 Y12.440 E10.83366
G1 X9.269 Y12.849 E10.86775
G1 X8.862 Y13.345 E10.91059
G1 X8.520 Y13.723 E10.94469
G1 X8.066 Y14.177 E10.98754
G1 X7.688 Y14.520 E11.02163
G1 X7.192 Y14.926 E11.06448
G1 X6.782 Y15.230 E11.09857
G1 X6.249 Y15.587 E11.14138
G1 X5.811 Y15.849 E11.17550
G1 X5.246 Y16.151 E11.21835
G1 X4.784 Y16.370 E11.25244
G1 X4.192 Y16.615 E11.29529
G1 X3.711 Y16.787 E11.32938
G1 X3.098 Y16.973 E11.37223
G1 X2.603 Y17.097 E11.40632
G1 X1.973 Y17.222 E11.44917
G1 X1.469 Y17.297 E11.48326
G1 X0.830 Y17.360 E11.52611
G1 X0.321 Y17.385 E11.56020
G1 X-0.321 Y17.385 E11.60304
G1 X-0.830 Y17.360 E11.63714
G1 X-1.469 Y17.297 E11.67998
G1 X-1.973 Y17.222 E11.71407
G1 X-2.603 Y17.097 E11.75692
G1 X-3.098 Y16.973 E11.79101
G1 X-3.711 Y16.787 E11.83386
G1 X-4.192 Y16.615 E11.86795
G1 X-4.784 Y16.370 E11.91080
G1 X-5.246 Y16.151 E11.94489
G1 X-5.811 Y15.849 E11.98774
G1 X-6.249 Y15.587 E12.02183
G1 X-6.782 Y15.230 E12.06468
G1 X-7.192 Y14.926 E12.09877
G1 X-7.688 Y14.520 E12.14160
G1 X-8.066 Y14.177 E12.17570
G1 X-8.520 Y13.723 E12.21855
G1 X-8.862 Y13.345 E12.25264
G1 X-9.269 Y12.849 E12.29549
G1 X-9.573 Y12.440 E12.32958
G1 X-9.929 Y11.907 E12.37238
G1 X-10.192 Y11.469 E12.40652
G1 X-10.494 Y10.903 E12.44937
G1 X-10.712 Y10.442 E12.48346
G1 X-10.958 Y9.849 E12.52631
G1 X-11.130 Y9.369 E12.56040
G1 X-11.316 Y8.755 E12.60324
G1 X-11.440 Y8.260 E12.63734
G1 X-11.566 Y7.624 E12.68065
G1 X-11.640 Y7.126 E12.71427
G1 X-11.703 Y6.488 E12.75712
G1 X-11.728 Y5.978 E12.79121
G1 X-11.728 Y5.338 E12.83396
G1 X-11.703 Y4.827 E12.86815
G1 X-11.640 Y4.190 E12.91091
G1 X-11.541 Y3.534 E12.95522
G1 X-10.638 Y-1.710 E13.31068
G1 E9.31068 F1800.00000
M103 ; extruder off
G1 X-7.476 Y-2.588 F9000.000
M101 ; extruder on
G1 E13.31068 F1800.00000
G1 X-7.061 Y-3.416 E13.37254 F4320.000
G1 X-7.046 Y-3.628 E13.38677
G1 X-7.487 Y-4.957 E13.48027
G1 X-6.953 Y-6.023 E13.55996
G1 X-6.924 Y-6.145 E13.56831
G1 X-6.924 Y-10.109 E13.83316
G1 X-6.870 Y-10.573 E13.86437
G1 X-6.746 Y-11.096 E13.90025
G1 X-6.587 Y-11.535 E13.93146
G1 X-4.377 Y-15.943 E14.26086
G1 X-1.219 Y-16.992 E14.48319
G1 X-0.935 Y-16.850 E14.50444
M101 ; extruder on
G1 X-0.735 Y-16.831 E14.51785 F4320.000
G1 X1.868 Y-16.838 E14.69174
G1 X2.376 Y-16.992 E14.72718
G1 X5.887 Y-15.232 E14.98958
G1 X6.793 Y-12.506 E15.18154
G1 X6.924 Y-12.314 E15.19704
G1 X6.941 Y-12.059 E15.21411
G1 X6.924 Y-11.985 E15.21919
G1 X6.924 Y-8.021 E15.48404
G1 X6.860 Y-7.415 E15.52474
G1 X7.098 Y-6.142 E15.61123
G1 X7.155 Y-6.020 E15.62022
G1 X7.214 Y-5.947 E15.62651
G1 X7.415 Y-4.138 E15.74814
G1 X7.444 Y-4.042 E15.75481
G1 X7.684 Y-3.583 E15.78944
G1 X7.701 Y-1.645 E15.91887
G1 X7.115 Y-0.476 E16.00625
G1 X7.143 Y-0.171 E16.02674
G1 X7.636 Y0.495 E16.08210
G1 X8.106 Y1.269 E16.14257
G1 X8.497 Y2.085 E16.20300
G1 X8.766 Y2.815 E16.25499
G1 X8.859 Y3.119 E16.27620
G1 X9.059 Y3.956 E16.33372
G1 X9.182 Y4.852 E16.39416
G1 X9.217 Y5.756 E16.45458
G1 X9.163 Y6.660 E16.51504
G1 X9.021 Y7.553 E16.57547
G1 X8.792 Y8.428 E16.63588
G1 X8.478 Y9.276 E16.69630
G1 X8.082 Y10.089 E16.75672
G1 X7.609 Y10.860 E16.81716
G1 X7.062 Y11.581 E16.87758
G1 X6.448 Y12.245 E16.93802
G1 X5.771 Y12.845 E16.99848
G1 X5.039 Y13.376 E17.05887
G1 X4.258 Y13.833 E17.11932
G1 X3.436 Y14.211 E17.17975
G1 X2.581 Y14.506 E17.24018
G1 X1.701 Y14.717 E17.30061
G1 X0.805 Y14.840 E17.36105
G1 X-0.099 Y14.874 E17.42147
G1 X-1.002 Y14.820 E17.48193
G1 X-1.895 Y14.678 E17.54236
G1 X-2.771 Y14.449 E17.60281
G1 X-3.619 Y14.135 E17.66320
G1 X-4.432 Y13.740 E17.72362
G1 X-5.203 Y13.266 E17.78406
G1 X-5.923 Y12.720 E17.84447
G1 X-6.587 Y12.105 E17.90493
G1 X-7.188 Y11.428 E17.96535
G1 X-7.718 Y10.696 E18.02575
G1 X-8.082 Y10.089 E18.07304
G1 X-8.478 Y9.276 E18.13347
G1 X-8.792 Y8.427 E18.19390
G1 X-9.021 Y7.552 E18.25432
G1 X-9.182 Y6.462 E18.32794
G1 X-9.217 Y5.559 E18.38830
G1 X-9.163 Y4.656 E18.44874
G1 X-9.036 Y3.835 E18.50427
G1 X-8.814 Y2.958 E18.56470
G1 X-8.534 Y2.176 E18.62018
G1 X-8.152 Y1.356 E18.68061
G1 X-7.636 Y0.496 E18.74764
G1 X-7.156 Y-0.152 E18.80149
G1 X-6.913 Y-0.431 E18.82619
G1 X-6.854 Y-0.714 E18.84556
G1 X-7.457 Y-2.531 E18.97345
G1 X-6.898 Y-2.546 F9000.000
M101 ; extruder on
G1 X-6.483 Y-3.374 E19.03531 F4320.000
G1 X-6.468 Y-3.587 E19.04954
G1 X-6.909 Y-4.915 E19.14304
G1 X-6.417 Y-5.896 E19.21637
G1 X-6.388 Y-6.018 E19.22472
G1 X-6.388 Y-10.078 E19.49596
G1 X-6.341 Y-10.480 E19.52301
G1 X-6.232 Y-10.942 E19.55473
G1 X-6.094 Y-11.323 E19.58178
G1 X-3.998 Y-15.505 E19.89428
G1 X-1.261 Y-16.414 E20.08696
G1 X-0.989 Y-16.278 E20.10729
G1 X-0.789 Y-16.259 E20.12071
G1 X-0.635 Y-16.303 E20.13140
G1 X1.955 Y-16.303 E20.30439
G1 X2.334 Y-16.414 E20.33080
M101 ; extruder on
G1 X5.449 Y-14.853 E20.56356 F4320.000
G1 X6.315 Y-12.247 E20.74700
G1 X6.388 Y-12.128 E20.75638
G1 X6.388 Y-8.052 E21.02868
G1 X6.313 Y-7.428 E21.07067
G1 X6.597 Y-5.909 E21.17388
G1 X6.699 Y-5.731 E21.18762
G1 X6.893 Y-3.979 E21.30540
G1 X6.922 Y-3.883 E21.31207
G1 X7.150 Y-3.449 E21.34480
G1 X7.164 Y-1.770 E21.45697
G1 X6.476 Y-0.397 E21.55957
G1 X6.518 Y-0.072 E21.58149
G1 X6.780 Y0.237 E21.60850
G1 X7.279 Y0.927 E21.66539
G1 X7.677 Y1.603 E21.71779
G1 X8.004 Y2.296 E21.76901
G1 X8.342 Y3.256 E21.83700
G1 X8.531 Y4.048 E21.89137
G1 X8.631 Y4.721 E21.93687
G1 X8.682 Y5.743 E22.00520
G1 X8.631 Y6.594 E22.06214
G1 X8.531 Y7.267 E22.10763
G1 X8.332 Y8.096 E22.16454
G1 X8.053 Y8.901 E22.22146
G1 X7.697 Y9.674 E22.27837
G1 X7.171 Y10.552 E22.34669
G1 X6.657 Y11.231 E22.40361
G1 X6.199 Y11.736 E22.44912
G1 X5.573 Y12.314 E22.50605
G1 X4.894 Y12.828 E22.56296
G1 X4.168 Y13.274 E22.61988
G1 X3.401 Y13.645 E22.67680
G1 X2.602 Y13.940 E22.73372
G1 X1.777 Y14.155 E22.79064
G1 X0.936 Y14.289 E22.84756
G1 X0.085 Y14.339 E22.90447
G1 X-0.766 Y14.305 E22.96140
G1 X-1.610 Y14.189 E23.01832
G1 X-2.439 Y13.990 E23.07524
G1 X-3.243 Y13.711 E23.13215
G1 X-4.017 Y13.354 E23.18907
G1 X-4.752 Y12.923 E23.24599
G1 X-5.441 Y12.423 E23.30290
G1 X-6.078 Y11.856 E23.35983
G1 X-6.657 Y11.231 E23.41674
G1 X-7.171 Y10.552 E23.47365
G1 X-7.616 Y9.825 E23.53058
G1 X-8.053 Y8.900 E23.59891
G1 X-8.333 Y8.096 E23.65582
G1 X-8.531 Y7.268 E23.71270
G1 X-8.631 Y6.593 E23.75825
G1 X-8.682 Y5.743 E23.81515
G1 X-8.648 Y4.892 E23.87207
G1 X-8.511 Y3.943 E23.93613
G1 X-8.302 Y3.117 E23.99304
G1 X-8.037 Y2.375 E24.04567
G1 X-7.677 Y1.603 E24.10259
G1 X-7.242 Y0.869 E24.15954
G1 X-6.738 Y0.183 E24.21644
G1 X-6.306 Y-0.303 E24.25985
G1 X-6.247 Y-0.586 E24.27921
G1 X-6.879 Y-2.489 E24.41318
G1 X-6.320 Y-2.505 F9000.000
M101 ; extruder on
G1 X-5.905 Y-3.333 E24.47503 F4320.000
G1 X-5.889 Y-3.545 E24.48927
G1 X-6.331 Y-4.873 E24.58277
G1 X-5.825 Y-5.883 E24.65820
G1 X-5.853 Y-6.155 E24.67649
G1 X-5.853 Y-10.047 E24.93649
G1 X-5.813 Y-10.387 E24.95937
G1 X-5.718 Y-10.789 E24.98693
G1 X-5.601 Y-11.111 E25.00982
G1 X-3.618 Y-15.066 E25.30542
G1 X-1.303 Y-15.836 E25.46845
G1 X-1.043 Y-15.706 E25.48787
M101 ; extruder on
G1 X-0.843 Y-15.687 E25.50128 F4320.000
G1 X-0.560 Y-15.767 E25.52090
G1 X2.041 Y-15.767 E25.69470
G1 X2.292 Y-15.836 E25.71209
G1 X5.010 Y-14.473 E25.91521
G1 X5.853 Y-11.958 E26.09244
G1 X5.853 Y-8.083 E26.35130
G1 X5.765 Y-7.441 E26.39460
G1 X6.096 Y-5.676 E26.51452
G1 X6.185 Y-5.515 E26.52684
G1 X6.372 Y-3.820 E26.64077
G1 X6.401 Y-3.724 E26.64744
G1 X6.615 Y-3.315 E26.67827
G1 X6.627 Y-1.894 E26.77319
G1 X5.832 Y-0.308 E26.89176
G1 X5.877 Y0.021 E26.91392
G1 X6.320 Y0.518 E26.95837
G1 X6.793 Y1.162 E27.01178
G1 X7.201 Y1.850 E27.06519
G1 X7.560 Y2.627 E27.12241
G1 X7.806 Y3.327 E27.17197
G1 X8.004 Y4.139 E27.22781
G1 X8.114 Y4.931 E27.28122
G1 X8.146 Y5.730 E27.33462
G1 X8.100 Y6.528 E27.38805
G1 X7.975 Y7.318 E27.44145
G1 X7.816 Y7.953 E27.48518
G1 X7.554 Y8.708 E27.53859
G1 X7.218 Y9.434 E27.59199
G1 X6.813 Y10.123 E27.64540
G1 X6.251 Y10.881 E27.70845
G1 X5.709 Y11.469 E27.76186
G1 X5.112 Y12.000 E27.81529
G1 X4.466 Y12.471 E27.86866
G1 X3.776 Y12.876 E27.92208
G1 X3.050 Y13.211 E27.97549
G1 X2.295 Y13.474 E28.02890
G1 X1.518 Y13.661 E28.08231
G1 X0.726 Y13.771 E28.13572
G1 X-0.072 Y13.803 E28.18912
G1 X-0.871 Y13.757 E28.24255
G1 X-1.660 Y13.633 E28.29595
G1 X-2.434 Y13.431 E28.34937
G1 X-3.184 Y13.155 E28.40275
G1 X-3.904 Y12.807 E28.45615
G1 X-4.586 Y12.390 E28.50956
G1 X-5.224 Y11.908 E28.56295
G1 X-5.811 Y11.366 E28.61638
G1 X-6.343 Y10.769 E28.66977
G1 X-6.813 Y10.123 E28.72316
G1 X-7.150 Y9.561 E28.76693
G1 X-7.498 Y8.841 E28.82034
G1 X-7.774 Y8.091 E28.87374
G1 X-7.975 Y7.318 E28.92714
G1 X-8.015 Y7.097 E28.94208
G1 X-8.114 Y6.384 E28.99023
G1 X-8.146 Y5.586 E29.04359
G1 X-8.100 Y4.787 E29.09700
G1 X-7.986 Y4.050 E29.14681
G1 X-7.790 Y3.275 E29.20021
G1 X-7.512 Y2.507 E29.25481
G1 X-7.167 Y1.786 E29.30822
G1 X-6.753 Y1.102 E29.36164
G1 X-6.274 Y0.462 E29.41505
G1 X-5.703 Y-0.164 E29.47164
G1 X-5.638 Y-0.454 E29.49147
G1 X-6.301 Y-2.448 E29.63185
G1 X-5.741 Y-2.463 F9000.000
M101 ; extruder on
G1 X-5.326 Y-3.291 E29.69371 F4320.000
G1 X-5.311 Y-3.503 E29.70794
G1 X-5.752 Y-4.832 E29.80144
G1 X-5.193 Y-5.948 E29.88484
G1 X-5.225 Y-6.258 E29.90568
G1 X-5.317 Y-6.374 E29.91560
G1 X-5.317 Y-10.016 E30.15886
G1 X-5.285 Y-10.294 E30.17758
G1 X-5.204 Y-10.635 E30.20098
G1 X-5.108 Y-10.898 E30.21971
G1 X-3.239 Y-14.628 E30.49840
G1 X-1.344 Y-15.258 E30.63180
G1 X-1.097 Y-15.133 E30.65029
G1 X-0.897 Y-15.115 E30.66371
G1 X-0.486 Y-15.231 E30.69225
G1 X2.135 Y-15.219 E30.86735
G1 X2.251 Y-15.258 E30.87547
M101 ; extruder on
G1 X4.572 Y-14.094 E31.04894 F4320.000
G1 X5.202 Y-12.199 E31.18234
G1 X5.225 Y-11.872 E31.20427
G1 X5.317 Y-11.755 E31.21419
G1 X5.317 Y-8.114 E31.45744
G1 X5.285 Y-7.836 E31.47617
G1 X5.221 Y-7.566 E31.49470
G1 X5.218 Y-7.454 E31.50219
G1 X5.557 Y-5.643 E31.62524
G1 X5.583 Y-5.404 E31.64131
G1 X5.670 Y-5.298 E31.65042
G1 X5.837 Y-3.781 E31.75238
G1 X5.839 Y-3.644 E31.76156
G1 X6.081 Y-3.181 E31.79644
G1 X6.091 Y-2.019 E31.87410
G1 X5.183 Y-0.208 E32.00939
G1 X5.238 Y0.133 E32.03251
G1 X5.864 Y0.807 E32.09391
G1 X6.311 Y1.405 E32.14380
G1 X6.698 Y2.044 E32.19372
G1 X6.988 Y2.647 E32.23843
G1 X7.250 Y3.347 E32.28834
G1 X7.319 Y3.580 E32.30457
G1 X7.476 Y4.231 E32.34930
G1 X7.579 Y4.970 E32.39920
G1 X7.610 Y5.598 E32.44118
G1 X7.579 Y6.345 E32.49109
G1 X7.476 Y7.084 E32.54098
G1 X7.265 Y7.923 E32.59877
G1 X7.054 Y8.515 E32.64076
G1 X6.740 Y9.193 E32.69065
G1 X6.361 Y9.836 E32.74055
G1 X5.845 Y10.531 E32.79833
G1 X5.339 Y11.081 E32.84823
G1 X4.874 Y11.503 E32.89023
G1 X4.277 Y11.952 E32.94012
G1 X3.640 Y12.341 E32.99002
G1 X2.967 Y12.666 E33.03991
G1 X2.266 Y12.923 E33.08981
G1 X1.543 Y13.110 E33.13970
G1 X0.805 Y13.225 E33.18960
G1 X0.059 Y13.268 E33.23949
G1 X-0.687 Y13.237 E33.28939
G1 X-1.427 Y13.133 E33.33928
G1 X-2.153 Y12.957 E33.38918
G1 X-2.858 Y12.711 E33.43907
G1 X-3.535 Y12.397 E33.48896
G1 X-4.179 Y12.018 E33.53885
G1 X-4.782 Y11.578 E33.58875
G1 X-5.339 Y11.080 E33.63865
G1 X-5.845 Y10.531 E33.68854
G1 X-6.295 Y9.935 E33.73843
G1 X-6.740 Y9.193 E33.79622
G1 X-7.008 Y8.624 E33.83822
G1 X-7.265 Y7.923 E33.88811
G1 X-7.485 Y7.019 E33.95028
G1 X-7.579 Y6.344 E33.99578
G1 X-7.610 Y5.599 E34.04564
G1 X-7.568 Y4.853 E34.09554
G1 X-7.462 Y4.158 E34.14249
G1 X-7.279 Y3.434 E34.19238
G1 X-7.020 Y2.718 E34.24325
G1 X-6.698 Y2.044 E34.29315
G1 X-6.344 Y1.454 E34.33912
G1 X-5.832 Y0.769 E34.39622
G1 X-5.402 Y0.297 E34.43888
G1 X-5.100 Y0.017 E34.46638
G1 X-5.019 Y-0.291 E34.48764
G1 X-5.722 Y-2.406 E34.63658
G1 X-5.163 Y-2.421 F9000.000
M101 ; extruder on
